X:149
T:Kitty Goes A-Milking
R:reel
M:4/4
L:1/8
K:Gmaj
| dG G2 d2 cA | dG G2 FGAB | dG G2 d2 eg | fdcA GABc |
dG G2 d2 cA | dG G2 FGAB | dG G2 d2 eg | fdcA GABc |
| dg g2 ag g2 | dggf d2 cA | dg g2 ag g2 | dcAB c2 Bc |
dg g2 ag g2 | dggf d2 cA | defg a3 g | fdcA G4 |

